app/images/icon/icon-svg/oncology.svg

<svg width="110" height="110" viewBox="0 0 110 110" fill="none" xmlns="http://www.w3.org/2000/svg">
<path d="M109.057 0.943916C107.798 -0.314639 105.758 -0.314639 104.499 0.943916L89.4241 16.0189C85.8311 14.3072 81.3926 14.935 78.4222 17.9056L71.194 25.1338C67.6009 23.4222 63.1625 24.0501 60.192 27.0206C59.0063 28.2065 30.3648 56.848 28.8113 58.4013C25.079 56.8871 21.0531 56.0924 16.9051 56.0924C16.9021 56.0924 16.8986 56.0924 16.8954 56.0924C11.5647 56.0924 7.2281 60.429 7.2281 65.7597C7.2281 71.0904 11.5649 75.427 16.8954 75.427C18.082 75.427 19.2591 75.6047 20.3877 75.9399L7.78024 88.5473L5.5014 86.2685C4.24306 85.0099 2.20247 85.0099 0.943916 86.2685C-0.314639 87.527 -0.314639 89.5674 0.943916 90.826C2.86075 92.7428 17.1999 107.082 19.1741 109.056C20.4324 110.315 22.4732 110.315 23.7315 109.056C24.9901 107.798 24.9901 105.757 23.7315 104.499L21.4527 102.22L34.0602 89.6123C34.3953 90.7411 34.573 91.918 34.573 93.1046C34.573 95.6874 35.5784 98.1154 37.404 99.9409C39.2297 101.766 41.6575 102.772 44.2401 102.772C49.5706 102.772 53.9074 98.4351 53.9074 93.1054C53.9085 88.9536 53.1138 84.924 51.5983 81.1887C53.2272 79.5598 81.3954 51.3914 82.979 49.808C85.9655 46.8219 86.5832 42.381 84.8701 38.802L92.0942 31.5778C95.0807 28.5917 95.6984 24.1509 93.9852 20.5718L109.056 5.50097C110.315 4.24306 110.315 2.20247 109.057 0.943916ZM16.8958 97.6625L12.3384 93.1048L26.0108 79.4324L30.5685 83.9901L16.8958 97.6625ZM44.2409 96.327C42.4586 96.327 41.0189 94.8874 41.0189 93.105C41.0189 88.0601 38.9238 83.2301 35.5176 79.8242L30.1768 74.4832C26.7787 71.0848 21.9522 68.9819 16.8961 68.9819C15.1193 68.9819 13.6741 67.5365 13.6741 65.7599C13.6741 63.9834 15.1195 62.5379 16.8969 62.5379C16.8999 62.5379 16.9016 62.5379 16.9047 62.5379C23.6381 62.5379 29.9704 65.1616 34.7345 69.9257L40.0753 75.2665C44.8414 80.0326 47.4651 86.3675 47.4632 93.105C47.4627 94.8816 46.0175 96.327 44.2409 96.327ZM57.9138 65.7597L55.635 63.4809C54.3766 62.2223 52.336 62.2223 51.0775 63.4809C49.8189 64.7394 49.8189 66.7798 51.0775 68.0383L53.3563 70.3172L48.4128 75.2607C47.3072 73.6468 46.0459 72.1223 44.6326 70.7088L39.2918 65.368C37.8784 63.9546 36.354 62.6934 34.7401 61.5881L48.7986 47.5296L62.4713 61.2022L57.9138 65.7597ZM78.4224 45.2509L76.1435 47.5298L73.8649 45.2511C72.6068 43.9926 70.5662 43.9926 69.3074 45.2511C68.0487 46.5097 68.0489 48.5501 69.3074 49.8086L71.5861 52.0875L67.0284 56.6452L53.3559 42.9725L64.7497 31.5783C66.0066 30.3219 68.051 30.3219 69.3074 31.5783L78.4224 40.6934C79.682 41.9531 79.682 43.9913 78.4224 45.2509ZM87.5373 27.0208L80.701 33.8571L76.1435 29.2996L82.9796 22.4633C84.2369 21.2067 86.2809 21.2069 87.5373 22.4633C88.797 23.7229 88.797 25.7612 87.5373 27.0208Z" fill="#FFC59E"/>
</svg>

<svg width="110" height="110" fill="none" xmlns="http://www.w3.org/2000/svg"><path d="M109.057.944a3.223 3.223 0 00-4.558 0L89.424 16.019c-3.593-1.712-8.031-1.084-11.002 1.887l-7.228 7.228c-3.593-1.712-8.032-1.084-11.002 1.887L28.812 58.4a31.608 31.608 0 00-11.907-2.309h-.01c-5.33 0-9.667 4.337-9.667 9.668 0 5.33 4.337 9.667 9.667 9.667 1.187 0 2.364.178 3.493.513L7.78 88.547 5.501 86.27a3.222 3.222 0 10-4.557 4.557l18.23 18.23a3.222 3.222 0 104.558-4.557l-2.28-2.279L34.06 89.612a12.28 12.28 0 01.513 3.493 9.604 9.604 0 002.831 6.836 9.607 9.607 0 006.836 2.831c5.33 0 9.667-4.337 9.667-9.667a31.612 31.612 0 00-2.309-11.916L82.98 49.808a9.67 9.67 0 001.891-11.006l7.224-7.224a9.67 9.67 0 001.891-11.006L109.056 5.5a3.222 3.222 0 00.001-4.557zM16.896 97.662l-4.558-4.557 13.673-13.673 4.558 4.558-13.673 13.672zm27.345-1.335a3.218 3.218 0 01-3.222-3.222c0-5.045-2.095-9.875-5.501-13.28l-5.341-5.342c-3.398-3.398-8.225-5.501-13.28-5.501a3.226 3.226 0 01-3.223-3.222 3.226 3.226 0 013.223-3.222h.008c6.733 0 13.065 2.624 17.83 7.388l5.34 5.34c4.766 4.767 7.39 11.102 7.388 17.839a3.226 3.226 0 01-3.222 3.222zM57.914 65.76l-2.279-2.28a3.222 3.222 0 10-4.557 4.558l2.278 2.28-4.943 4.943a32.062 32.062 0 00-3.78-4.552l-5.341-5.341a32.026 32.026 0 00-4.552-3.78L48.8 47.53l13.67 13.672-4.557 4.558zm20.508-20.51l-2.278 2.28-2.28-2.279a3.223 3.223 0 00-4.557 4.558l2.28 2.279-4.559 4.557-13.672-13.673L64.75 31.578a3.227 3.227 0 014.557 0l9.115 9.115a3.22 3.22 0 010 4.558zm9.115-18.23l-6.836 6.837-4.557-4.557 6.836-6.837a3.227 3.227 0 014.557 0 3.22 3.22 0 010 4.558z" fill="#FFC59E"/></svg>
